X:3
%%scale 0.7
%%newpage 1
T:Fantasy \`a 5 (VdGS Anon No.1607)
C:Anon
L:1/4
M:4/2
P:Treble II
%%measurenb 0
%%squarebreve
K:C clef=treble
^c4 d2 B2 | c>d e>A B/c/ d2 ^c | d2 d2 ^c4 | d2 _B2 A4 |
z4 z e e e | f g a g/f/ e d ^c A| D F E2 ^F2 A2 | d2 c4 A2-| A2 G2 A4 |
z8 | z2 e e/e/ e A c d/e/ | f3 e2 d c B | A4 z g g ^f |g f/e/d/c/ d c4 |
z a a g a g/f/e/d/ e | d4 B e e2 | ^c2 =c3 c d e | f2 f3 f f a | g f g2 a2 g e |
f d e d ^c A a f | g e g d e f d e | c d e3 d d2-| d2 ^c2 d4-| d2 c2 B4 |
A4 z4 | z8 | z4 A3 B | ^c2 d2 A4 | z2 e4 B2|c A a3 e g2-|
g2 f2 e4 | Z2 | z4 z2 e2-| e2 c2 d>c B A | B A A4 ^G2 |
A2 e4 B2  | c2 A2 z e2 d | ^c2 d4 c2 | d3 c/B/ A4| G2 A2 B2 E ^F |
^G2 A4 G2 | A3 G F3 E | D4 A4 | A4 A4 | G2 F2 z4 | d e f e/d/ e ^f g =f/e/ |
d4 c2 B2 | A B c4 B2 | A B c d e3 d/c/ | B c d4 ^c2 | d3 e f g a2-|a2 g4 f2 |
e4 d2 z2 |z8| z4 z2 z e | f g a3 d e f | g3 c d e f2 |e4 d3 e |
f3 e/d/ c d e f | e d d4 ^c2 | d2 z e f g a2 |[M:6/2] z d e f g2 d2 a4 |[M:4/2]^f8 |] 

